X:1
T:Grds Jonas-valsen
R:Vals
Z:Erik Ronstrm 2007-09-09
S:Efter Kalle Almlf
M:3/4
L:1/8
K:D
FG|AB cd ef|d2 f2 FG|AB AG F2|E4 FG|AB cd ef|
g2 f2 ed|c2 cA Bc|1 d2 f2:|[2 d4 |:de|f2 A2 f2|g2 B2 g2|
a>b a^g ab|a4 g2|f2 ed ef|g2 B2 ed|c2 cA Bc|d4:|
